X: 21
T: Missa Mi mi (Missa Petite camusette) / Agnus Dei
N: Derived from Ort1005e-Missa_Mi_mi-Agnus-Missa_Petite_camusette.krn
C: Marbrianus de Orto
%%abc-version 2.0
%%abcx-abcm2ps-target-version 5.9.1 (29 Sep 2008)
%%abc-creator hum2abc beta
%%abcx-conversion-date 2019/02/17 07:28:37
%%abc-edited-by Jesse Rodin
%%abc-edited-by Jesse Rodin 8/9/2013
%%abcx-initial-encoding-date 2013/08/09/
%%humdrum-veritas 3427640633
%%humdrum-veritas-data 432406127
%%linebreak <none>
%%barnumbers 0
L: 1/4
M: 4/2
Q: 1/2=120
%%staves [1 2 3 4]
V: 1 clef=treble
V: 2 clef=treble-8
V: 3 clef=treble-8
V: 4 clef=bass
K: C
[V:1] A6E2 | 
[V:2] A4D2A2 | 
[V:3] z8 | 
[V:4] z8 | 
[V:1] B2c2B4 | 
[V:2] G2A3G/F/G2 | 
[V:3] z8 | 
[V:4] z8 | 
[V:1] E4E2A,2- | 
[V:2] c4z2F2- | 
[V:3] A8 | 
[V:4] z8 | 
[V:1] A,2E4D2 | 
[V:2] F2E2F4 | 
[V:3] c4A4 | 
[V:4] z8 | 
[V:1] E2G3EA2 | 
[V:2] E4e3f | 
[V:3] B4z2A2 | 
[V:4] E,6A,,2 | 
[V:1] G2A4^G2 | 
[V:2] e2d2e4 | 
[V:3] c2A2B4 | 
[V:4] E,2F,2E,4 | 
[V:1] A2E4A2- | 
[V:2] c3BAGF2- | 
[V:3] A4c4 | 
[V:4] z8 | 
[V:1] AGFED3E | 
[V:2] F2D2z2d2- | 
[V:3] A4B4 | 
[V:4] D,6G,,2 | 
[V:1] F2G4F2 | 
[V:2] d2c2d4 | 
[V:3] z4A4 | 
[V:4] D,2E,2D,4 | 
[V:1] E4D4 | 
[V:2] A2c2G4 | 
[V:3] c2A2B4 | 
[V:4] z4G,4- | 
[V:1] G3AB2c2 | 
[V:2] z2g4f2 | 
[V:3] E4z4 | 
[V:4] G,2C,2G,2A,2 | 
[V:1] d3cA4 | 
[V:2] g4f4 | 
[V:3] B4d4 | 
[V:4] G,4z4 | 
[V:1] G4E3F | 
[V:2] e4z2e2- | 
[V:3] B4c4 | 
[V:4] E,6A,,2 | 
[V:1] G2A4G2 | 
[V:2] e2d2e4 | 
[V:3] z4B4 | 
[V:4] E,2F,2E,4 | 
[V:1] A2c2B2A2- | 
[V:2] c4G2D2 | 
[V:3] A4d4 | 
[V:4] F,4G,2F,2 | 
[V:1] AGG4^F2 | 
[V:2] F2_B2A4 | 
[V:3] d8- | 
[V:4] D,3G,,D,4 | 
[V:1] G4z4 | 
[V:2] G4z2A2 | 
[V:3] d8 | 
[V:4] G,,2G,4F,2 | 
[V:1] z8 | 
[V:2] B2E2G4 | 
[V:3] e4d4 | 
[V:4] E,2C,3A,,B,,2 | 
[V:1] z8 | 
[V:2] A4E4 | 
[V:3] c4B4 | 
[V:4] A,,2A,4G,2 | 
[V:1] E6F2 | 
[V:2] z8 | 
[V:3] A2B2c2d2 | 
[V:4] A,2E,4D,2 | 
[V:1] G3DG2FE | 
[V:2] z8 | 
[V:3] c2B4A2 | 
[V:4] E,2B,,2C,4 | 
[V:1] D3EF2G2 | 
[V:2] z2d4c2 | 
[V:3] B4z4 | 
[V:4] B,,3C,D,2E,2 | 
[V:1] FEE4D2 | 
[V:2] d2B4A2 | 
[V:3] z8 | 
[V:4] D,2E,2F,4 | 
[V:1] E4z4 | 
[V:2] B4d3c/B/ | 
[V:3] z8 | 
[V:4] E,4z2D,2 | 
[V:1] z8 | 
[V:2] AGc4A2- | 
[V:3] z8 | 
[V:4] C,B,,A,,G,,A,,2C,2 | 
[V:1] z2G2A3G/F/ | 
[V:2] A2d2c2A2 | 
[V:3] z8 | 
[V:4] B,,4A,,4 | 
[V:1] EDG3EE2- | 
[V:2] GFEDE2G2 | 
[V:3] z8 | 
[V:4] z8 | 
[V:1] E2D2E2G2 | 
[V:2] F4E4 | 
[V:3] z8 | 
[V:4] z2D,2G,3F,/E,/ | 
[V:1] FEDCD2F2 | 
[V:2] z8 | 
[V:3] z8 | 
[V:4] D,C,F,4D,2 | 
[V:1] E4z4 | 
[V:2] c4d3c/B/ | 
[V:3] z4z2G2 | 
[V:4] A,4z4 | 
[V:1] z8 | 
[V:2] AGFEFDd2- | 
[V:3] FEDCD2F2 | 
[V:4] z8 | 
[V:1] z2G2A3G/F/ | 
[V:2] d2c2z2d2 | 
[V:3] E4D4 | 
[V:4] z8 | 
[V:1] EDCB,CA,A2- | 
[V:2] cBAGA2c2 | 
[V:3] z8 | 
[V:4] z8 | 
[V:1] A2^G2A4 | 
[V:2] B4A2f2- | 
[V:3] z8 | 
[V:4] z2E,2F,2D,2 | 
[V:1] z2d2cBAG | 
[V:2] f2d2e4- | 
[V:3] z8 | 
[V:4] D2B,2A,2C2- | 
[V:1] A2c2B4 | 
[V:2] e4e4 | 
[V:3] z8 | 
[V:4] C2A,2G,4 | 
[V:1] A8 | 
[V:2] f3edcd2- | 
[V:3] z8 | 
[V:4] F,8 | 
[V:1] z8 | 
[V:2] dcBAB2A2- | 
[V:3] z8 | 
[V:4] F,E,D,C,D,2A,,2 | 
[V:1] z4E4 | 
[V:2] A2^G2A2z2 | 
[V:3] d4cBAG | 
[V:4] B,,4A,,2z2 | 
[V:1] F2E2GFED | 
[V:2] D2A4G2 | 
[V:3] A2c2B4 | 
[V:4] z8 | 
[V:1] C3DEDG2- | 
[V:2] A2c2BAc2- | 
[V:3] z2A2GFED | 
[V:4] z4z2C,2- | 
[V:1] GEE4D2 | 
[V:2] c2c2A4 | 
[V:3] E2G2F4 | 
[V:4] C,2C,2D,4 | 
[V:1] E2G3EB2- | 
[V:2] B6G2 | 
[V:3] E4e4- | 
[V:4] G,4E,4- | 
[V:1] BGc4B2 | 
[V:2] g8 | 
[V:3] e4d4 | 
[V:4] E,2C,2G,3D, | 
[V:1] A2c4A2- | 
[V:2] c2f4e2 | 
[V:3] cBAGA2c2 | 
[V:4] F,4z4 | 
[V:1] A2^G2A4- | 
[V:2] d2e4A2 | 
[V:3] B4A4- | 
[V:4] z2E,2C,2D,2 | 
[V:1] A8 ||  
[V:2] e8 ||  
[V:3] A8 ||  
[V:4] A,,8 ||  
[V:1]  [K:C] [K:clef=treble][M:2/1]A,8 | 
[V:2]  [K:C] [K:clef=treble-8][M:2/1]A4c4 | 
[V:3]  [K:C] [K:clef=treble-8][M:2/1]z8 | 
[V:4]  [K:C] [K:clef=bass][M:2/1]z8 | 
[V:1] E8 | 
[V:2] cBAGA4- | 
[V:3] z8 | 
[V:4] z8 | 
[V:1] F8 | 
[V:2] A2D2d4 | 
[V:3] z8 | 
[V:4] z8 | 
[V:1] E4D2E2- | 
[V:2] z2c2B2c2- | 
[V:3] z8 | 
[V:4] z8 | 
[V:1] E2DCB,4 | 
[V:2] cAA4^G2 | 
[V:3] z8 | 
[V:4] z8 | 
[V:1] A,B,CDE3F | 
[V:2] A4z4 | 
[V:3] A4c4 | 
[V:4] A,,8 | 
[V:1] G2A4^G2 | 
[V:2] z8 | 
[V:3] B8 | 
[V:4] E,8 | 
[V:1] A8 | 
[V:2] z2c3BA2- | 
[V:3] A8 | 
[V:4] F,8 | 
[V:1] z8 | 
[V:2] A2G2F4 | 
[V:3] z8 | 
[V:4] E,4D,4 | 
[V:1] z8 | 
[V:2] E4z4 | 
[V:3] ^G8 | 
[V:4] E,8 | 
[V:1] z2c3BA2- | 
[V:2] e4e2f2- | 
[V:3] A8 | 
[V:4] A,,8 | 
[V:1] A2G2F4 | 
[V:2] fee4d2 | 
[V:3] z8 | 
[V:4] z8 | 
[V:1] E3FGAG2- | 
[V:2] e4z4 | 
[V:3] z8 | 
[V:4] C,8 | 
[V:1] GFEDC2E2- | 
[V:2] z8 | 
[V:3] z8 | 
[V:4] B,,4A,,4 | 
[V:1] E2DCB,4 | 
[V:2] z8 | 
[V:3] z8 | 
[V:4] ^G,,8 | 
[V:1] A,4z4 | 
[V:2] A3Bcdc2- | 
[V:3] e8 | 
[V:4] A,,8 | 
[V:1] z8 | 
[V:2] cBAGF2A2- | 
[V:3] A8 | 
[V:4] z8 | 
[V:1] z8 | 
[V:2] A2GFE4 | 
[V:3] c8 | 
[V:4] z4A,,4 | 
[V:1] z8 | 
[V:2] D4z4 | 
[V:3] d6c2 | 
[V:4] B,,6C,2 | 
[V:1] z8 | 
[V:2] z8 | 
[V:3] B4A4 | 
[V:4] D,4D,4 | 
[V:1] z8 | 
[V:2] z8 | 
[V:3] ^G3ABcB2- | 
[V:4] E,3F,G,A,G,2- | 
[V:1] z8 | 
[V:2] z8 | 
[V:3] BAGFE2c2- | 
[V:4] G,F,E,D,C,2E,2- | 
[V:1] z4D4 | 
[V:2] z4z2D2 | 
[V:3] c2A4^G2 | 
[V:4] E,2D,C,B,,4 | 
[V:1] C4B,2C2- | 
[V:2] E3FG2A2- | 
[V:3] A4z4 | 
[V:4] A,,4z4 | 
[V:1] C2B,A,G,4 | 
[V:2] A2GFE4 | 
[V:3] z4B4 | 
[V:4] z8 | 
[V:1] z4G,2C2- | 
[V:2] z8 | 
[V:3] c2B4E2 | 
[V:4] E,4E,4 | 
[V:1] C2B,A,G,4 | 
[V:2] z4B2c2 | 
[V:3] F4E4 | 
[V:4] D,4E,4 | 
[V:1] z8 | 
[V:2] B2e3dB2- | 
[V:3] G4A2G2- | 
[V:4] z8 | 
[V:1] G4F4 | 
[V:2] B2c4B2 | 
[V:3] G2C2D4 | 
[V:4] z8 | 
[V:1] E4F4 | 
[V:2] c2C2D4 | 
[V:3] C2c4B2 | 
[V:4] z8 | 
[V:1] E2F2E2F2- | 
[V:2] C2D2C2c2- | 
[V:3] c2A3GA2- | 
[V:4] z8 | 
[V:1] FEE4D2 | 
[V:2] cBB4A2 | 
[V:3] A2E2F4 | 
[V:4] z8 | 
[V:1] E8 | 
[V:2] B3AB2c2- | 
[V:3] E4z4 | 
[V:4] z4E,4 | 
[V:1] z8 | 
[V:2] cBG2A4 | 
[V:3] z8 | 
[V:4] E,4F,4 | 
[V:1] z8 | 
[V:2] EFGABcde | 
[V:3] B4G4 | 
[V:4] G,6F,E, | 
[V:1] z8 | 
[V:2] f2e4d2 | 
[V:3] z2B4A2 | 
[V:4] D,2E,2F,4 | 
[V:1] G6A2 | 
[V:2] e4z2e2- | 
[V:3] c2B4A2 | 
[V:4] E,8- | 
[V:1] B6E2 | 
[V:2] ede2B2c2 | 
[V:3] G4z2G2- | 
[V:4] E,8- | 
[V:1] B2c2B4 | 
[V:2] B2e4e2- | 
[V:3] G2A2G3A | 
[V:4] E,8- | 
[V:1] z8 | 
[V:2] efg4e2 | 
[V:3] B2E2B2c2 | 
[V:4] E,8- | 
[V:1] G3AB2E2 | 
[V:2] e3fg2c2 | 
[V:3] B4z4 | 
[V:4] E,8- | 
[V:1] B2c2B2c2- | 
[V:2] g2e4e2- | 
[V:3] E3FG2CD | 
[V:4] E,8 | 
[V:1] c2BAG2A2 | 
[V:2] e2e2e4 | 
[V:3] EFGAB2c2 | 
[V:4] E,8- | 
[V:1] G2A4^G2 | 
[V:2] z4e4 | 
[V:3] B2A2B4 | 
[V:4] E,8 | 
[V:1] A4z2E2- | 
[V:2] c2e3dc2 | 
[V:3] A4E3F | 
[V:4] A,,8 | 
[V:1] EFG2C4 | 
[V:2] B2c4A2 | 
[V:3] G2C2E2F2 | 
[V:4] z4A,,4 | 
[V:1] z2C2D3C | 
[V:2] A4z2d2 | 
[V:3] E4D4 | 
[V:4] A,,4B,,4 | 
[V:1] A,2G,2C4 | 
[V:2] e3fg2c2 | 
[V:3] z4E3F | 
[V:4] C,6B,,A,, | 
[V:1] B,2A,4^G,2 | 
[V:2] d2c2d4 | 
[V:3] G2E2D4 | 
[V:4] G,,2A,,2B,,4 | 
[V:1] A,2A4GF | 
[V:2] e4z4 | 
[V:3] C4F2E2 | 
[V:4] A,,8- | 
[V:1] E8 ||  
[V:2] c8 ||  
[V:3] A8 ||  
[V:4] A,,8 ||  
[V:1]  [K:C] [K:clef=treble][M:2/1]z8 | 
[V:2]  [K:C] [K:clef=treble-8][M:2/1]e8- | 
[V:3]  [K:C] [K:clef=treble-8][M:2/1]z8 | 
[V:4]  [K:C] [K:clef=bass][M:2/1]z8 | 
[V:1] z8 | 
[V:2] e4A4 | 
[V:3] z8 | 
[V:4] A,8- | 
[V:1] z8 | 
[V:2] e4f4 | 
[V:3] z8 | 
[V:4] A,4D,4 | 
[V:1] z8 | 
[V:2] e4d4 | 
[V:3] z8 | 
[V:4] A,4_B,4 | 
[V:1] z8 | 
[V:2] c4B2E2 | 
[V:3] e8- | 
[V:4] A,4E,4- | 
[V:1] z8 | 
[V:2] B4c4 | 
[V:3] e8- | 
[V:4] E,4A,,4 | 
[V:1] B6E2 | 
[V:2] B4^G4 | 
[V:3] e8- | 
[V:4] E,8 | 
[V:1] B4c4 | 
[V:2] E4A4 | 
[V:3] e8- | 
[V:4] z8 | 
[V:1] B4A4 | 
[V:2] G4c4 | 
[V:3] e8- | 
[V:4] E,4A,,4 | 
[V:1] ^G8 | 
[V:2] B4B4 | 
[V:3] e8 | 
[V:4] E,8 | 
[V:1] c4B2A2- | 
[V:2] A2F2z2f2- | 
[V:3] A8- | 
[V:4] F,8 | 
[V:1] A2GFE4 | 
[V:2] f2edc4 | 
[V:3] A8 | 
[V:4] z8 | 
[V:1] z8 | 
[V:2] z8 | 
[V:3] e8- | 
[V:4] C3B,G,2A,2- | 
[V:1] z8 | 
[V:2] ^c8 | 
[V:3] e8 | 
[V:4] A,2G,F,E,2A,2 | 
[V:1] A8 | 
[V:2] d8- | 
[V:3] f8- | 
[V:4] D,8- | 
[V:1] F4A4- | 
[V:2] d8 | 
[V:3] f8 | 
[V:4] D,8 | 
[V:1] A2GFG4 | 
[V:2] B8 | 
[V:3] e8- | 
[V:4] E,8 | 
[V:1] c4B4 | 
[V:2] A4G4 | 
[V:3] e8- | 
[V:4] z8 | 
[V:1] G4A4- | 
[V:2] c4A4 | 
[V:3] e8- | 
[V:4] z8 | 
[V:1] A2^G^FG4 | 
[V:2] B8 | 
[V:3] e8 | 
[V:4] E,8 | 
[V:1] A4c4 | 
[V:2] A4e4- | 
[V:3] z8 | 
[V:4] A,,8 | 
[V:1] B2c4BA | 
[V:2] e2dcd4 | 
[V:3] z8 | 
[V:4] E,4F,4 | 
[V:1] G3AB2c2- | 
[V:2] e4d2e2- | 
[V:3] z8 | 
[V:4] E,3F,G,2C,2 | 
[V:1] c2B2c4 | 
[V:2] efg4^f2 | 
[V:3] z8 | 
[V:4] G,4A,4 | 
[V:1] B4A2B2- | 
[V:2] g4z2d2- | 
[V:3] d8- | 
[V:4] G,4D,2G,2- | 
[V:1] B2G4^F2 | 
[V:2] d2B2A4 | 
[V:3] d8- | 
[V:4] G,2G,2D,4 | 
[V:1] G4z4 | 
[V:2] G3AB2c2 | 
[V:3] d8 | 
[V:4] G,,6A,,2 | 
[V:1] z8 | 
[V:2] d2e3dcB | 
[V:3] G8 | 
[V:4] B,,2C,3D,E,2 | 
[V:1] z8 | 
[V:2] A4B4 | 
[V:3] d8 | 
[V:4] F,E,D,C,B,,4 | 
[V:1] G6c2- | 
[V:2] G2c3BA2- | 
[V:3] e8 | 
[V:4] C,8 | 
[V:1] c2BAB2A2 | 
[V:2] ABG4F2 | 
[V:3] d8- | 
[V:4] z8 | 
[V:1] z2B4AG | 
[V:2] G4z2d2- | 
[V:3] d8 | 
[V:4] z4G,4 | 
[V:1] A2G2z2G2- | 
[V:2] d2B2e3d | 
[V:3] z8 | 
[V:4] F,2E,2C,4 | 
[V:1] G2FEF2E2- | 
[V:2] B2c2B2c2- | 
[V:3] z8 | 
[V:4] z2C,2D,2C,2 | 
[V:1] E2DCD2C2- | 
[V:2] c2A2G2A2 | 
[V:3] z8 | 
[V:4] A,,4B,,2A,,2 | 
[V:1] C2A,4^G,2 | 
[V:2] E2F2D4 | 
[V:3] z8 | 
[V:4] C,2D,2B,,4 | 
[V:1] A,4A4 | 
[V:2] E4z4 | 
[V:3] c8- | 
[V:4] A,,8 | 
[V:1] c4A4 | 
[V:2] A3Bc2d2 | 
[V:3] c4F4 | 
[V:4] z8 | 
[V:1] G2c3BA2- | 
[V:2] e4f4- | 
[V:3] c4d4 | 
[V:4] z8 | 
[V:1] A2GFG4 | 
[V:2] f2e2e4 | 
[V:3] c8 | 
[V:4] z8 | 
[V:1] A2G2F4 | 
[V:2] f2e4d2 | 
[V:3] z8 | 
[V:4] z4D,4 | 
[V:1] E4z2B2- | 
[V:2] e8- | 
[V:3] z8 | 
[V:4] A,4E,3F, | 
[V:1] B2E2B2c2 | 
[V:2] e8 | 
[V:3] z8 | 
[V:4] G,2A,2G,2C,2 | 
[V:1] B4G4 | 
[V:2] d4e4 | 
[V:3] z8 | 
[V:4] G,4C4 | 
[V:1] d4G2B2- | 
[V:2] g4z2g2- | 
[V:3] B6E2 | 
[V:4] G,4z2G,2- | 
[V:1] BAA2G3A | 
[V:2] g2e2e4 | 
[V:3] B2c2B4 | 
[V:4] G,2A,2E,4- | 
[V:1] B2E2B2c2 | 
[V:2] z2e4A2 | 
[V:3] z8 | 
[V:4] E,4z4 | 
[V:1] B2A2c4 | 
[V:2] e2f2e2E2- | 
[V:3] z8 | 
[V:4] z4A,,4 | 
[V:1] CDEFG2A2 | 
[V:2] EFGAB2A2 | 
[V:3] z8 | 
[V:4] z2E,4A,,2 | 
[V:1] B2A3^GG^F | 
[V:2] G2A2B4 | 
[V:3] z8 | 
[V:4] E,2F,2E,4 | 
[V:1] A8 |]  
[V:2] A8 |]  
[V:3] A8 |]  
[V:4] A,,8 |]  



